src/assets/icons/pul-icon-book.svg

<!-- Generated by IcoMoon.io -->
<svg version="1.1" xmlns="http://www.w3.org/2000/svg" width="16" height="16" viewBox="0 0 16 16">
<title>book</title>
<path d="M13.667 2.667h-0.333v-2.333c0-0.184-0.149-0.333-0.333-0.333h-9.333c-0.919 0-1.667 0.748-1.667 1.667v12.667c0 0.919 0.747 1.667 1.667 1.667h10c0.184 0 0.333-0.149 0.333-0.333v-12.667c0-0.184-0.149-0.333-0.333-0.333zM3.667 0.667h9v2h-0.667v-1c0-0.184-0.149-0.333-0.333-0.333h-8c-0.184 0-0.333 0.149-0.333 0.333s0.149 0.333 0.333 0.333h7.667v0.667h-7.667c-0.551 0-1-0.449-1-1s0.449-1 1-1zM13.333 15.333h-9.667c-0.551 0-1-0.449-1-1v-11.334c0.279 0.209 0.625 0.334 1 0.334h9.667v12z"></path>
</svg>

<svg xmlns="http://www.w3.org/2000/svg" viewBox="0 0 16 16">
    <path d="M13.667 2.667h-.333V.334a.333.333 0 0 0-.333-.333H3.668a1.67 1.67 0 0 0-1.667 1.667v12.667c0 .919.747 1.667 1.667 1.667h10a.333.333 0 0 0 .333-.333V3.002a.333.333 0 0 0-.333-.333zm-10-2h9v2H12v-1a.333.333 0 0 0-.333-.333h-8a.333.333 0 1 0 0 .666h7.667v.667H3.667c-.551 0-1-.449-1-1s.449-1 1-1zm9.666 14.666H3.666c-.551 0-1-.449-1-1V2.999c.279.209.625.334 1 .334h9.667v12z"/>
</svg>
